X:1
T:Title
%%score ( 1 2 ) ( 3 4 )
L:1/8
Q:1/4=90
M:4/4
K:G
V:1 treble nm="Strings 1, Treble"
V:2 treble 
V:3 bass nm="Strings 1, Bass"
V:4 bass 
V:1
 z4 z2 D2 | [DG]3 [DF] [DG]2 [GB]2 | [GB]3 [FA] [FA]2 [Fd]2 | [GB]2 cA [DG]2 [FA]2 | [GB]6 D2 | %5
w: 1.~O~|love~ di vine!~ no~|soul~ has~ e'er~ Thy~|won drous~ * depths~ ex|plored;~ O~|
 [DG]3 [DF] [DG]2 [GB]2 | [GB]3 [FA] [FA]2 [Fd]2 | [GB]2 cA [DG]2 [DF]2 | [DG]6 D2 | D3 D DEFG | %10
w: price less~ gift!~ we~|fain~ would~ have~ Thy~|rich es~ * on~ us~|poured.~ Let~|mor tals~ join~ * with~ *|
 A2 A2 A2 [DF][EG] | [FA]3 [FA] [FA][=F^G][^FA][=GB] | [Ac]2 [Ac]2 [Ac]2 [FA]2 | %13
w: all~ their~ might,~ Let~ *|earth~ and~ heav * en~ *|both~ u nite~ To~|
 [GB]3 [GB] [GB][FA][GB][Fc] | [Gd]2 [Gd]2 [Gd]2 [DG]2 | [DB]3 [DG] [DA]2 GF | [DG]6 z2 |] %17
w: sing~ thy~ praise~ * both~ *|day~ and~ night�~ The~|half~ can~ ne'er~ be~ *|told.~|
V:2
 x8 | x8 | x8 | z2 E2 z4 | x8 | x8 | x8 | z2 E2 z4 | x8 | x8 | x8 | x8 | x8 | x8 | x8 | z4 z2 D2 | %16
 x8 |] %17
V:3
 z4 z2 [G,B,]2 | [G,B,]3 [G,A,] [G,B,]2 [G,D]2 | [D,D]3 [D,D] [D,D]2 [D,D]2 | %3
 [G,D]2 [C,C]2 [D,B,]2 [D,D]2 | [G,D]6 [G,B,]2 | [G,B,]3 [G,A,] [G,B,]2 [G,D]2 | %6
 [D,D]3 [D,D] [D,D]2 [D,D]2 | [G,D]2 [C,C]2 [D,B,]2 [D,A,]2 | [G,,B,]6 F,2 | %9
 F,3 F, F,G,[K:treble]A,B, | C2 C2 C2 z2 | z8 | z4 z2[K:bass] [D,D]2 | %13
 [G,D]3 [G,D] D-[D,D]D-[A,D] | [B,D]2 [B,D]2 [G,B,]2 [B,,G,]2 | [D,G,]3 [D,B,] [D,C]2 B,A, | %16
 [G,,B,]6 z2 |] %17
V:4
 x8 | x8 | x8 | x8 | x8 | x8 | x8 | x8 | x8 | x6[K:treble] x2 | x8 | x8 | x6[K:bass] x2 | %13
 z4 .G,2 .G,2 | x8 | z4 z2 D,2 | x8 |] %17

